X:867
T:Strathearn
R:Strathspey
C:Niel Gow
B:The Athole Collection
M:C
L:1/8
K:G Minor
g|G<G d>c d<f ~g2|f>c d<f c>B A<F|G<G d>c A>cd>g|f>g a>A G2G:|
A|G<g g>f g<a ~a2|f>ga>g f>d f<c|d<g ~g>f d>fg>a|f>ga>A G2 G>A|
G<g g>f g<a ~g2|f>ga>g f>d f<c|d<cd<f ~g>f g<a|f>ga>A G2G||

